X:1
T:(The Peek—A—Boo Waltz)
L:1/4
M:4/4
I:linebreak $
K:D
V:1 treble nm="Voice" snm="Voice"
V:1
 F/>G/ |: A f e |"G" d c B |"D" A F"G" B |"D" A2 F/>G/ [FA]2 |$ A f e | d c d |"A" e3/2 d/ e/f/ | %8
 e2 F/>G/ |$ A f e |"G" d c B |"D" A F"G" B |"D" A2 ^G/A/ [FAce]2 |$ B g f |"A" e B c | %15
"D" d3/2 c/ d/e/ |"D" d2 F/>G/ ::$ A2 f | A3 |"G" B2 g F2 |$ c2 c | B2 c/B/ |"D" A F"G" B | %23
"D" A2 F/G/ |$ A2 f | A3 |"G" B2 g | B3 |$ c B A | g f e e2 |"D" d2 F/G/4 |] %31
